X:88
T:88. RH Pocket: Tied-and-Restruck
T:Use when melody holds — re-articulate chord to keep pulse
C:RH chord half-note + two quarters; LH anchor
M:4/4
L:1/4
Q:1/4=84
%%score {V1 V2}
V:V1 clef=treble
V:V2 clef=bass
K:C
[V:V1] "C" [cegc']2 [cegc'] [cegc'] | "F" [fac'f']2 [fac'f'] [fac'f'] | "G" [gbd'g']2 [gbd'g'] [gbd'g'] | "C" [cegc']2 [cegc'] [cegc'] |]
[V:V2] C,4 | F,4 | G,4 | C,4 |]

